!!!OTL: Die beste Zeit im Jahre.
!!!OTL-incipit:DIE BESTE ZEIT IM JAHR IST MEIN
!!!COM: G. W. Fink
!!!ARE: Europa, Mitteleuropa, Deutschland
!!!SCT: F0257
!!!TXL: @@DE
!!!YEM: Copyright 1995, estate of Helmut Schaffrath.
**kern	**text
*ICvox	*
*clefG2	*
*M2/4	*
*k[b-]	*
*F:	*
!LO:TX:a:t=Feſt und froh.	!
!LO:TX:a:t=P:only the highest voice encoded:problem	!
{8cc	1._Die
=1	=1
8dd	be-
8dd	-ſte
8b-	Ʒeit
8b-	im
=2	=2
8.cc/	Jahr'
16b-/	iſt
8a}	mein,
{8cc	da
=3	=3
8b-/	ſin-
8g	-gen
8a	al-
8f	-le
=4	=4
8.g	Vö-
16a	-ge-
4g	-lein
=5	=5
4r}	.
{[>4cc/	Him-
=6	=6
8cc/]	.
16cc/	-mel
16dd/	und
8ee	Er-
8ee	-den
=7	=7
8dd/	iſt
8bn/	der
4cc/}	voll
=8	=8
{8r	.
8dd/	viel
8cc/	gut
8b-/	Ge-
=9	=9
8a	-ſang
8dd/	da
8.cc/	lau-
16b-/	-tet
=10	=10
8a}	wohl,
{8a	viel
8b-/	gut
8cc/	Geſang
=11	=11
8dd/	.
8dd/	da
[>4dd/	lau-
=12	=12
4dd/]	.
4cc/	-tet
=13	=13
[>2cc/	wohl!
=14	=14
8cc/]	.
8r	.
8r;}	.
==	==
!!!AGN: Jugend - Lied, Belehrung, religioes
!!!ONB: ESAC (Essen Associative Code) Database: FINK
!!!AMT: simple duple
!!!AIN: vox
!!!EED: Helmut Schaffrath
!!!EEV: 1.0
!!!RDF**kern: > = above
!!!GTL: Jugendlieder
!!Text: Dr. Martin Luther
!!!source: Musikalischer Hausschatz der Deutschen. Eine Sammlung von über 1000 Liedern und Gesängen mit Singstimmen und Klavierbegleitung. Leipzig, Litterarisches Verlags-Haus.
!!!page: 154
!!!URL-scan: https://www.dig!!!source: Musikalischer Hausschatz der Deutschen. Eine Sammlung von über 1000 Liedern und Gesängen mit Singstimmen und Klavierbegleitung. Leipzig, Litterarisches Verlags-Haus.
!!!page: 153itale-sammlungen.de/en/view/bsb11144622?page=152,153
!!!ENC: Anna Maria Matuszewska
!!!EEV: 2024/07/29
*-	*-